X: 18
M: 6/8
L: 1/8
K: D
V: 1
|: e |\
e2f g2f & A6 | e2a e2f & A6 | e2f g2f & A6 | f3 e2A & A6 |\
|: "Mineur"a |\
a3 f2a | a3 f2a | g2f gfe | fef dfg |\
a3 f2a | a3 f2a | g2f gfe | d3- Hd2 :|
a |\
aga ^fga | bab b2g | fef efg | aga a2f |\
fef def | gfg g2e | ede ^cde | f3 "_Da Capo"e2 |]
V: 2 clef=bass middle=d
z |\
d3 d3 | d3 d3 | g3 fed | a3 z2z | d3 d3 |
d3 d3 | g3 a3 | d3- d2 :||: z | A3 A3 | A3 A3 | A3 A3 |
|: "Mineur"z |\
dfa d'3 | dfa d'3 | g3 a3 | d'3 d2z | dfa d'3 |
dfa d'3 | g3 a3 | d3- Hd2 :| z | d'3 de^f | g3 G3 | c'3 cde |
f3 F3 | b3 Bcd | =e3 E3 | a3 A=B^c | d3 "_Da Capo"A2 |]


